svg/fluentui-system-icons/ic_fluent_square_hint_sparkles_32_filled.svg

<svg width="32" height="32" viewBox="0 0 32 32" fill="none" xmlns="http://www.w3.org/2000/svg">
<path d="M21.7746 7.83723C21.6862 7.72306 21.5905 7.6142 21.4881 7.5114C21.1065 7.12868 20.6407 6.84036 20.1278 6.66946L18.4439 6.12259C18.3141 6.07684 18.2017 5.99198 18.1222 5.87972C18.0427 5.76746 18 5.63332 18 5.49579C18 5.35827 18.0427 5.22413 18.1222 5.11187C18.2017 4.9996 18.3141 4.91475 18.4439 4.86899L20.1278 4.32212C20.6336 4.14763 21.0921 3.85862 21.4675 3.47768C21.8326 3.10718 22.1094 2.65949 22.2778 2.16788L22.2918 2.12622L22.839 0.443537C22.8848 0.313845 22.9697 0.201538 23.0821 0.122099C23.1944 0.0426599 23.3287 0 23.4663 0C23.604 0 23.7382 0.0426599 23.8505 0.122099C23.9629 0.201538 24.0478 0.313845 24.0936 0.443537L24.6409 2.12622C24.8111 2.63779 25.0983 3.10264 25.4798 3.48384C25.8613 3.86504 26.3265 4.15207 26.8385 4.32212L28.5224 4.86899L28.5561 4.87741C28.6859 4.92316 28.7983 5.00802 28.8778 5.12028C28.9573 5.23254 29 5.36668 29 5.50421C29 5.64173 28.9573 5.77587 28.8778 5.88813C28.7983 6.0004 28.6859 6.08525 28.5561 6.13101L26.8722 6.67788C26.3602 6.84793 25.895 7.13496 25.5135 7.51616C25.132 7.89736 24.8448 8.36221 24.6746 8.87378L24.1273 10.5565C24.1223 10.5705 24.1169 10.5842 24.1111 10.5978C24.0629 10.71 23.9845 10.807 23.8842 10.8779C23.7719 10.9573 23.6376 11 23.5 11C23.3624 11 23.2281 10.9573 23.1158 10.8779C23.0034 10.7985 22.9185 10.6862 22.8727 10.5565L22.3254 8.87378C22.2018 8.49849 22.0152 8.14812 21.7746 7.83723ZM18.5171 3.26297L18 3.43954C17.5647 3.58085 17.1852 3.85618 16.9158 4.22617C16.6464 4.59616 16.5008 5.04185 16.5 5.49954L14.25 5.5C13.5596 5.5 13 4.94036 13 4.25C13 3.55964 13.5596 3 14.25 3H17.75C18.0391 3 18.3053 3.09816 18.5171 3.26297ZM14.25 26.5C13.5596 26.5 13 27.0596 13 27.75C13 28.4404 13.5596 29 14.25 29H17.75C18.4404 29 19 28.4404 19 27.75C19 27.0596 18.4404 26.5 17.75 26.5H14.25ZM3 17.75C3 18.4404 3.55964 19 4.25 19C4.94036 19 5.5 18.4404 5.5 17.75L5.5 14.25C5.5 13.5596 4.94036 13 4.25 13C3.55964 13 3 13.5596 3 14.25V17.75ZM9 4.25C9 3.55964 8.44036 3 7.75 3C5.12665 3 3 5.12665 3 7.75C3 8.44036 3.55964 9 4.25 9C4.94036 9 5.5 8.44036 5.5 7.75C5.5 6.50736 6.50736 5.5 7.75 5.5C8.44036 5.5 9 4.94036 9 4.25ZM7.75 29C8.44036 29 9 28.4404 9 27.75C9 27.0596 8.44036 26.5 7.75 26.5C6.50736 26.5 5.5 25.4926 5.5 24.25C5.5 23.5596 4.94036 23 4.25 23C3.55964 23 3 23.5596 3 24.25C3 26.8734 5.12665 29 7.75 29ZM24.25 29C23.5596 29 23 28.4404 23 27.75C23 27.0596 23.5596 26.5 24.25 26.5C25.4926 26.5 26.5 25.4926 26.5 24.25C26.5 23.5596 27.0596 23 27.75 23C28.4404 23 29 23.5596 29 24.25C29 26.8734 26.8734 29 24.25 29ZM30.821 12.3575L31.7395 12.6558L31.7579 12.6604C31.8287 12.6854 31.89 12.7316 31.9333 12.7929C31.9767 12.8541 32 12.9273 32 13.0023C32 13.0773 31.9767 13.1505 31.9333 13.2117C31.89 13.2729 31.8287 13.3192 31.7579 13.3442L30.8394 13.6425C30.5601 13.7352 30.3064 13.8918 30.0983 14.0997C29.8902 14.3077 29.7335 14.5612 29.6407 14.8402L29.3422 15.7581C29.3172 15.8288 29.2709 15.8901 29.2096 15.9334C29.1483 15.9767 29.0751 16 29 16C28.9249 16 28.8517 15.9767 28.7904 15.9334C28.7291 15.8901 28.6828 15.8288 28.6578 15.7581L28.3593 14.8402C28.2671 14.5604 28.1107 14.3059 27.9026 14.0971C27.6945 13.8884 27.4404 13.7311 27.1606 13.6379L26.2421 13.3396C26.1713 13.3146 26.11 13.2684 26.0667 13.2071C26.0233 13.1459 26 13.0727 26 12.9977C26 12.9227 26.0233 12.8495 26.0667 12.7883C26.11 12.7271 26.1713 12.6808 26.2421 12.6558L27.1606 12.3575C27.4365 12.2623 27.6866 12.1047 27.8913 11.8969C28.0961 11.6891 28.25 11.4368 28.341 11.1598L28.6395 10.2419C28.6645 10.1712 28.7108 10.1099 28.7721 10.0666C28.8333 10.0233 28.9066 10 28.9816 10C29.0567 10 29.1299 10.0233 29.1912 10.0666C29.2525 10.1099 29.2988 10.1712 29.3238 10.2419L29.6223 11.1598C29.7151 11.4388 29.8718 11.6924 30.0799 11.9003C30.288 12.1082 30.5417 12.2648 30.821 12.3575Z" fill="#212121"/>
</svg>

<svg xmlns="http://www.w3.org/2000/svg" width="32" height="32"><path d="M21.775 7.837a3.485 3.485 0 0 0-1.647-1.168l-1.684-.546a.665.665 0 0 1 0-1.254l1.684-.547a3.47 3.47 0 0 0 2.15-2.154l.014-.042.547-1.682a.665.665 0 0 1 1.255 0l.547 1.682a3.466 3.466 0 0 0 2.198 2.196l1.683.547.034.008a.665.665 0 0 1 0 1.254l-1.684.547a3.47 3.47 0 0 0-2.197 2.196l-.548 1.682a.664.664 0 0 1-1.255 0l-.547-1.682a3.464 3.464 0 0 0-.55-1.037Zm-3.258-4.574L18 3.44a2.17 2.17 0 0 0-1.5 2.06h-2.25a1.25 1.25 0 1 1 0-2.5h3.5c.29 0 .555.098.767.263ZM14.25 26.5a1.25 1.25 0 1 0 0 2.5h3.5a1.25 1.25 0 1 0 0-2.5h-3.5ZM3 17.75a1.25 1.25 0 1 0 2.5 0v-3.5a1.25 1.25 0 1 0-2.5 0v3.5Zm6-13.5C9 3.56 8.44 3 7.75 3A4.75 4.75 0 0 0 3 7.75a1.25 1.25 0 1 0 2.5 0A2.25 2.25 0 0 1 7.75 5.5C8.44 5.5 9 4.94 9 4.25ZM7.75 29a1.25 1.25 0 1 0 0-2.5 2.25 2.25 0 0 1-2.25-2.25 1.25 1.25 0 1 0-2.5 0A4.75 4.75 0 0 0 7.75 29Zm16.5 0a1.25 1.25 0 1 1 0-2.5 2.25 2.25 0 0 0 2.25-2.25 1.25 1.25 0 1 1 2.5 0A4.75 4.75 0 0 1 24.25 29Zm6.571-16.642.918.298.019.004a.362.362 0 0 1 0 .684l-.919.299a1.892 1.892 0 0 0-1.198 1.197l-.299.918a.363.363 0 0 1-.684 0l-.299-.918a1.891 1.891 0 0 0-1.198-1.202l-.919-.298a.362.362 0 0 1 0-.684l.919-.299a1.892 1.892 0 0 0 1.18-1.197l.299-.918a.363.363 0 0 1 .684 0l.298.918a1.89 1.89 0 0 0 1.199 1.197Z"/></svg>
